public_html/sites/all/modules/custom/helpertheme/images/icons/naturalresources.svg

<svg xmlns="http://www.w3.org/2000/svg" viewBox="0 0 160 160"><path d="M 38.300 3.199 C 37.800 3.399 36.600 3.799 36.300 4.099 C 34.500 5.399 33.999 7.599 34.199 9.599 L 34.5 11.099 C 34.6 11.399 34.399 11.599 34.099 11.599 C 32.899 11.499 31.800 11.700 30.800 12.400 C 30.500 12.600 30.600 12.899 30.800 13.099 C 31.100 13.299 31.399 13.399 31.599 13.599 C 32.799 14.299 32.900 14.999 32.300 16.199 C 31.800 17.299 31.3 18.300 31 19.400 C 30.5 21.300 30.800 23.1 32.300 24.5 C 32.800 25 33.399 25.399 34.099 25.599 C 34.199 25.599 34.199 25.5 34.199 25.5 L 34.199 25.300 C 33.899 23.400 34.600 21.8 35.900 20.5 C 36.500 19.8 37 19.099 37 18.199 C 37 17.899 37.300 17.8 37.400 18 C 38.000 18.9 38.999 20.300 39.099 21.300 C 39.199 21.700 39.299 21.799 39.699 21.699 C 40.399 21.499 40.900 21.100 41.300 20.400 C 41.400 20.200 41.700 20.200 41.900 20.400 C 42.000 20.500 42.099 20.600 42.199 20.800 C 42.899 22.100 43.099 23.5 42.699 25 C 42.599 25.2 42.699 25.3 42.699 25.5 C 42.899 25.4 42.999 25.500 43.099 25.400 C 45.499 24.100 46.899 22.100 47.099 19.400 C 47.199 17.100 46.3 15.099 45 13.199 C 43.9 11.599 42.5 10.399 41 9.099 C 39.9 8.199 39.100 6.999 38.800 5.599 C 38.700 5.199 38.5 3.800 38.5 3.300 C 38.5 3.200 38.400 3.199 38.300 3.199 z M 125.900 11.599 C 123.800 11.599 121.800 12.1 119.900 12.5 C 119.200 12.6 118.6 12.800 118 12.900 C 113.2 13.900 108 13.799 103 13.599 L 94.599 13.300 C 93.299 13.300 93.300 13.299 90.400 12.199 C 89.100 11.799 87.699 12.399 87.199 13.699 C 86.799 14.999 87.399 16.400 88.699 16.900 C 92.099 18.100 92.3 18.200 94.5 18.300 L 102.900 18.599 C 108.200 18.799 113.699 19.000 119.099 17.900 C 119.799 17.800 120.399 17.7 121.099 17.5 C 122.799 17.1 124.4 16.699 126 16.699 C 129.1 16.699 132.000 18.199 133.800 20.699 C 134.300 21.299 135.000 21.699 135.800 21.699 C 136.300 21.699 136.799 21.499 137.199 21.199 C 138.399 20.399 138.600 18.799 137.800 17.699 C 135.100 13.899 130.6 11.599 126 11.599 L 125.900 11.599 z M 129 24 C 128.2 24 127.599 24.600 127.599 25.400 L 127.599 65 C 127.599 66 126.499 66.700 125.599 66.300 L 97 52.199 C 96.1 51.699 95 52.4 95 53.5 L 95 63.199 C 95 64.199 93.9 64.9 93 64.5 L 68.099 52.199 C 67.199 51.699 66.099 52.4 66.099 53.5 L 66.099 86.162 L 56 86.099 C 55.7 86.099 55.400 85.8 55.300 85.5 L 49.699 31.400 C 49.499 29.600 48.199 28.400 46.599 28.400 L 31.5 28.400 C 29.9 28.400 28.600 29.7 28.400 31.5 L 22.800 85.5 C 22.800 85.8 22.499 86.099 22.099 86.099 L 6.099 86.099 L 5.099 86.099 C 3.399 86.099 2 87.6 2 89.5 L 2 99.099 C 2 100.999 3.399 102.5 5.099 102.5 L 66.962 102.5 C 67.126 102.564 67.307 102.599 67.5 102.599 L 136.300 102.599 L 144.599 102.599 L 153.599 102.599 C 154.899 102.599 156 101.499 156 100.199 L 156 70.599 C 156 69.299 154.899 68.199 153.599 68.199 L 148.300 68.199 C 146.900 68.199 145.900 67.200 145.900 65.900 L 145.900 25.400 C 145.900 24.600 145.3 24 144.5 24 L 129 24 z M 33.099 32.5 L 39.199 32.5 C 39.899 32.5 40.1 33.399 39.5 33.699 L 33 37.5 C 32.5 37.8 32 37.400 32 36.900 L 32.400 33.099 C 32.400 32.799 32.699 32.5 33.099 32.5 z M 45.410 35.181 C 45.724 35.162 46.024 35.425 46.099 35.800 L 47.5 49.400 C 47.6 50.000 46.9 50.3 46.5 50 L 35.199 42.099 C 34.799 41.799 34.799 41.2 35.199 41 L 45.099 35.300 C 45.199 35.225 45.305 35.187 45.410 35.181 z M 31.789 44.880 C 31.893 44.887 31.999 44.925 32.099 45 L 43.900 53.300 C 44.300 53.600 44.300 54.200 43.800 54.400 L 30.5 60.300 C 30 60.500 29.499 60.099 29.599 59.599 L 31.099 45.5 C 31.174 45.125 31.475 44.862 31.789 44.880 z M 47.710 57.380 C 48.024 57.362 48.325 57.625 48.400 58 L 49.800 71.099 C 49.900 71.599 49.300 72.000 48.800 71.800 L 34.099 64.599 C 33.599 64.399 33.599 63.600 34.099 63.400 L 47.400 57.5 C 47.500 57.425 47.606 57.387 47.710 57.380 z M 29.433 66.923 C 29.550 66.925 29.675 66.95 29.800 67 L 45.300 74.599 C 45.800 74.799 45.800 75.600 45.300 75.800 L 28.300 83.199 C 27.700 83.399 27.199 83 27.199 82.5 L 28.800 67.5 C 28.800 67.125 29.082 66.919 29.433 66.923 z M 77 73.400 L 94.199 73.400 C 94.999 73.400 95.599 74.000 95.599 74.800 L 95.599 85.900 C 95.599 86.700 94.999 87.300 94.199 87.300 L 77 87.300 C 76.2 87.300 75.599 86.700 75.599 85.900 L 75.599 74.800 C 75.599 74.000 76.2 73.400 77 73.400 z M 107.599 73.400 L 124.800 73.400 C 125.600 73.400 126.199 74.000 126.199 74.800 L 126.199 85.900 C 126.199 86.700 125.600 87.300 124.800 87.300 L 107.599 87.300 C 106.799 87.300 106.199 86.700 106.199 85.900 L 106.199 74.800 C 106.199 74.000 106.799 73.400 107.599 73.400 z M 49.910 78.337 C 50.219 78.356 50.5 78.600 50.5 78.900 L 51.199 85.300 C 51.199 85.700 50.9 86.099 50.5 86.099 L 35.099 86.099 C 34.399 86.099 34.200 85.100 34.800 84.800 L 49.599 78.400 C 49.699 78.350 49.807 78.331 49.910 78.337 z "/><path d="M 67.988 106.400 C 67.775 106.425 67.550 106.499 67.300 106.599 C 66.600 107.099 65.900 107.700 64.900 107.400 C 64.100 107.200 63.6 107.699 63 108.099 C 62.5 108.499 61.599 108.699 61.699 109.699 C 61.699 109.799 61.500 109.999 61.400 110.099 L 58.300 113.199 C 58.000 113.499 58.199 114.099 58.699 114.099 L 82.300 114.099 C 83.200 114.099 83.800 113.200 83.400 112.400 C 82.900 111.400 82.299 110.300 81.099 109.800 C 80.899 109.700 80.7 109.599 80.5 109.599 C 80.1 109.499 79.7 109.300 79.5 108.900 C 79.1 108.100 78.299 107.699 77.699 107.199 C 77.599 107.099 77.400 107.000 77.300 106.900 C 76.900 106.600 76.599 106.600 76.199 106.800 C 75.099 107.400 73.8 107.800 72.5 107.900 C 72.2 107.900 71.899 107.900 71.699 107.800 C 70.699 107.400 69.599 106.9 68.599 106.5 C 68.399 106.4 68.200 106.375 67.988 106.400 z M 6.5 106.599 C 5.4 106.599 4.300 107.499 4.300 108.599 C 4.200 109.799 5.200 110.800 6.400 110.800 L 6.699 110.800 C 6.999 110.800 7.199 111.000 7.199 111.300 L 7.199 123.300 C 7.199 123.600 6.999 123.800 6.699 123.800 L 6.5 123.800 C 5.4 123.800 4.300 124.700 4.300 125.800 C 4.200 127.000 5.200 128 6.400 128 L 6.699 128 C 6.999 128 7.199 128.2 7.199 128.5 L 7.199 140.5 C 7.199 140.8 6.999 141 6.699 141 L 6.5 141 C 5.4 141 4.300 141.9 4.300 143 C 4.200 144.2 5.200 145.199 6.400 145.199 L 7.199 145.199 L 30.199 145.199 L 31 145.199 C 32 145.199 32.899 144.5 33.099 143.5 C 33.399 142.1 32.3 141 31 141 L 30.699 141 C 30.399 141 30.199 140.8 30.199 140.5 L 30.199 128.5 C 30.199 128.2 30.399 128 30.699 128 L 31 128 C 32.3 128 33.299 126.8 33.099 125.5 C 32.899 124.5 32 123.800 31 123.800 L 30.199 123.800 L 30.199 111.300 C 30.199 111.000 30.399 110.800 30.699 110.800 L 31 110.800 C 32 110.800 32.899 110.099 33.099 109.099 C 33.399 107.699 32.3 106.599 31 106.599 L 30.199 106.599 L 7.199 106.599 L 6.5 106.599 z M 115.199 108.599 L 102.900 123.699 L 127.599 145.5 L 152.199 123.699 L 139.900 108.599 L 115.199 108.599 z M 117 112 L 125.099 119 L 118.599 122.199 L 117 112 z M 137.900 112 L 136.300 122.199 L 129.800 119 L 137.900 112 z M 52.199 117.099 C 51.899 117.099 51.699 117.299 51.699 117.599 L 51.699 122.099 C 51.699 122.399 51.899 122.599 52.199 122.599 L 53.400 122.599 C 53.700 122.599 53.999 122.799 54.099 123.099 L 59 135.699 C 59.2 136.199 59.599 136.5 60.199 136.5 L 81.5 136.5 C 82 136.5 82.499 136.199 82.699 135.699 L 87.599 123.099 C 87.699 122.799 88.000 122.599 88.300 122.599 L 89.5 122.599 C 89.8 122.599 90 122.399 90 122.099 L 90 117.599 C 90.1 117.299 89.799 117.099 89.599 117.099 L 52.199 117.099 z M 18.75 118.5 C 19.175 118.5 19.600 118.699 19.900 119.099 C 21.500 121.299 24.400 125.399 24.400 127.599 C 24.300 130.699 21.799 133.199 18.699 133.199 C 15.599 133.199 13.099 130.699 13.099 127.599 C 13.099 125.399 15.899 121.299 17.599 119.099 C 17.899 118.699 18.325 118.5 18.75 118.5 z M 62.800 122.900 C 63.400 122.900 63.900 123.4 63.900 124 L 63.900 132.5 C 63.900 133.1 63.400 133.599 62.800 133.599 C 62.200 133.599 61.699 133.1 61.699 132.5 L 61.699 124 C 61.699 123.4 62.200 122.900 62.800 122.900 z M 68.199 122.900 C 68.799 122.900 69.300 123.4 69.300 124 L 69.300 132.5 C 69.300 133.1 68.799 133.599 68.199 133.599 C 67.599 133.599 67.099 133.1 67.099 132.5 L 67.099 124 C 67.099 123.4 67.599 122.900 68.199 122.900 z M 73.5 122.900 C 74.1 122.900 74.599 123.4 74.599 124 L 74.599 132.5 C 74.599 133.1 74.1 133.599 73.5 133.599 C 72.9 133.599 72.400 133.1 72.400 132.5 L 72.400 124 C 72.400 123.4 72.9 122.900 73.5 122.900 z M 78.900 122.900 C 79.500 122.900 80 123.4 80 124 L 80 132.5 C 80 133.1 79.500 133.599 78.900 133.599 C 78.300 133.599 77.800 133.1 77.800 132.5 L 77.800 124 C 77.800 123.4 78.300 122.900 78.900 122.900 z M 109 124 L 118.099 124.300 L 122 135 L 109 124.199 L 109 124 z M 146 124.099 L 146 124.300 L 133 135 L 136.900 124.300 L 146 124.099 z M 64.599 139.400 A 2.7 2.7 0 0 0 61.900 142.099 A 2.7 2.7 0 0 0 64.599 144.800 A 2.7 2.7 0 0 0 67.300 142.099 A 2.7 2.7 0 0 0 64.599 139.400 z M 77.199 139.400 A 2.7 2.7 0 0 0 74.5 142.099 A 2.7 2.7 0 0 0 77.199 144.800 A 2.7 2.7 0 0 0 79.900 142.099 A 2.7 2.7 0 0 0 77.199 139.400 z "/></svg>

<svg id="natural-resources" fill="#0093cf" xmlns="http://www.w3.org/2000/svg" viewBox="0 0 160 160">
		<path class="st0" d="M135.8,21.7c-0.8,0-1.5-0.4-2-1c-1.8-2.5-4.7-4-7.8-4c-1.6,0-3.2,0.4-4.9,0.8c-0.7,0.2-1.3,0.3-2,0.4
			c-5.4,1.1-10.9,0.9-16.2,0.7l-8.4-0.3c-2.2-0.1-2.4-0.2-5.8-1.4c-1.3-0.5-1.9-1.9-1.5-3.2c0.5-1.3,1.9-1.9,3.2-1.5
			c2.9,1.1,2.9,1.1,4.2,1.1l8.4,0.3c5,0.2,10.2,0.3,15-0.7c0.6-0.1,1.2-0.3,1.9-0.4c1.9-0.4,3.9-0.9,6-0.9c0,0,0,0,0.1,0
			c4.6,0,9.1,2.3,11.8,6.1c0.8,1.1,0.6,2.7-0.6,3.5C136.8,21.5,136.3,21.7,135.8,21.7z"/>
	<path class="st0" d="M145.9,65.9V25.4c0-0.8-0.6-1.4-1.4-1.4H129c-0.8,0-1.4,0.6-1.4,1.4V65c0,1-1.1,1.7-2,1.3L97,52.2
		c-0.9-0.5-2,0.2-2,1.3v9.7c0,1-1.1,1.7-2,1.3L68.1,52.2c-0.9-0.5-2,0.2-2,1.3v47.7c0,0.8,0.6,1.4,1.4,1.4h68.8h8.3h9
		c1.3,0,2.4-1.1,2.4-2.4V70.6c0-1.3-1.1-2.4-2.4-2.4h-5.3C146.9,68.2,145.9,67.2,145.9,65.9z M95.6,85.9c0,0.8-0.6,1.4-1.4,1.4H77
		c-0.8,0-1.4-0.6-1.4-1.4V74.8c0-0.8,0.6-1.4,1.4-1.4h17.2c0.8,0,1.4,0.6,1.4,1.4V85.9z M126.2,85.9c0,0.8-0.6,1.4-1.4,1.4h-17.2
		c-0.8,0-1.4-0.6-1.4-1.4V74.8c0-0.8,0.6-1.4,1.4-1.4h17.2c0.8,0,1.4,0.6,1.4,1.4C126.2,74.8,126.2,85.9,126.2,85.9z"/>

	<path class="st0" d="M72.3,86.2L72.3,86.2L72.3,86.2L56,86.1c-0.3,0-0.6-0.3-0.7-0.6l-5.6-54.1c-0.2-1.8-1.5-3-3.1-3H31.5
		c-1.6,0-2.9,1.3-3.1,3.1l-5.6,54c0,0.3-0.3,0.6-0.7,0.6h-16l0,0h-1c-1.7,0-3.1,1.5-3.1,3.4v9.6c0,1.9,1.4,3.4,3.1,3.4h67.1
		c1.8,0,3.2-1.6,3.2-3.6v-9.1C75.5,87.8,74.1,86.2,72.3,86.2z M48.4,58l1.4,13.1c0.1,0.5-0.5,0.9-1,0.7l-14.7-7.2
		c-0.5-0.2-0.5-1,0-1.2l13.3-5.9C47.8,57.2,48.3,57.5,48.4,58z M46.1,35.8l1.4,13.6c0.1,0.6-0.6,0.9-1,0.6l-11.3-7.9
		c-0.4-0.3-0.4-0.9,0-1.1l9.9-5.7C45.5,35,46,35.3,46.1,35.8z M32.4,33.1c0-0.3,0.3-0.6,0.7-0.6h6.1c0.7,0,0.9,0.9,0.3,1.2L33,37.5
		c-0.5,0.3-1-0.1-1-0.6L32.4,33.1z M31.1,45.5c0.1-0.5,0.6-0.8,1-0.5l11.8,8.3c0.4,0.3,0.4,0.9-0.1,1.1l-13.3,5.9
		c-0.5,0.2-1-0.2-0.9-0.7L31.1,45.5z M27.2,82.5l1.6-15c0-0.5,0.5-0.7,1-0.5l15.5,7.6c0.5,0.2,0.5,1,0,1.2l-17,7.4
		C27.7,83.4,27.2,83,27.2,82.5z M50.5,86.1H35.1c-0.7,0-0.9-1-0.3-1.3l14.8-6.4c0.4-0.2,0.9,0.1,0.9,0.5l0.7,6.4
		C51.2,85.7,50.9,86.1,50.5,86.1z"/>
	<path class="st0" d="M38.3,3.2c0.1,0,0.2,0,0.2,0.1c0,0.5,0.2,1.9,0.3,2.3C39.1,7,39.9,8.2,41,9.1c1.5,1.3,2.9,2.5,4,4.1
		c1.3,1.9,2.2,3.9,2.1,6.2c-0.2,2.7-1.6,4.7-4,6c-0.1,0.1-0.2,0-0.4,0.1c0-0.2-0.1-0.3,0-0.5c0.4-1.5,0.2-2.9-0.5-4.2
		c-0.1-0.2-0.2-0.3-0.3-0.4c-0.2-0.2-0.5-0.2-0.6,0c-0.4,0.7-0.9,1.1-1.6,1.3c-0.4,0.1-0.5,0-0.6-0.4c-0.1-1-1.1-2.4-1.7-3.3
		c-0.1-0.2-0.4-0.1-0.4,0.2c0,0.9-0.5,1.6-1.1,2.3c-1.3,1.3-2,2.9-1.7,4.8c0,0.1,0,0.1,0,0.2c0,0,0,0.1-0.1,0.1
		c-0.7-0.2-1.3-0.6-1.8-1.1c-1.5-1.4-1.8-3.2-1.3-5.1c0.3-1.1,0.8-2.1,1.3-3.2c0.6-1.2,0.5-1.9-0.7-2.6c-0.2-0.2-0.5-0.3-0.8-0.5
		c-0.2-0.2-0.3-0.5,0-0.7c1-0.7,2.1-0.9,3.3-0.8c0.3,0,0.5-0.2,0.4-0.5c-0.1-0.5-0.2-1-0.3-1.5c-0.2-2,0.3-4.2,2.1-5.5
		C36.6,3.8,37.8,3.4,38.3,3.2z"/>
<path class="st0" d="M30.7,128H31c1.3,0,2.3-1.2,2.1-2.5c-0.2-1-1.1-1.7-2.1-1.7h-0.8v-12.5c0-0.3,0.2-0.5,0.5-0.5H31
	c1,0,1.9-0.7,2.1-1.7c0.3-1.4-0.8-2.5-2.1-2.5h-0.8h-23H6.5c-1.1,0-2.2,0.9-2.2,2c-0.1,1.2,0.9,2.2,2.1,2.2h0.3
	c0.3,0,0.5,0.2,0.5,0.5v12c0,0.3-0.2,0.5-0.5,0.5H6.5c-1.1,0-2.2,0.9-2.2,2C4.2,127,5.2,128,6.4,128h0.3c0.3,0,0.5,0.2,0.5,0.5v12
	c0,0.3-0.2,0.5-0.5,0.5H6.5c-1.1,0-2.2,0.9-2.2,2c-0.1,1.2,0.9,2.2,2.1,2.2h0.8h23H31c1,0,1.9-0.7,2.1-1.7c0.3-1.4-0.8-2.5-2.1-2.5
	h-0.3c-0.3,0-0.5-0.2-0.5-0.5v-12C30.2,128.2,30.4,128,30.7,128z M18.7,133.2c-3.1,0-5.6-2.5-5.6-5.6c0-2.2,2.8-6.3,4.5-8.5
	c0.6-0.8,1.7-0.8,2.3,0c1.6,2.2,4.5,6.3,4.5,8.5C24.3,130.7,21.8,133.2,18.7,133.2z"/>
	<path class="st0" d="M68.6,106.5c1,0.4,2.1,0.9,3.1,1.3c0.2,0.1,0.5,0.1,0.8,0.1c1.3-0.1,2.6-0.5,3.7-1.1c0.4-0.2,0.7-0.2,1.1,0.1
		c0.1,0.1,0.3,0.2,0.4,0.3c0.6,0.5,1.4,0.9,1.8,1.7c0.2,0.4,0.6,0.6,1,0.7c0.2,0,0.4,0.1,0.6,0.2c1.2,0.5,1.8,1.6,2.3,2.6
		c0.4,0.8-0.2,1.7-1.1,1.7H58.7c-0.5,0-0.7-0.6-0.4-0.9c0.9-0.9,2.3-2.3,3.1-3.1c0.1-0.1,0.3-0.3,0.3-0.4c-0.1-1,0.8-1.2,1.3-1.6
		c0.6-0.4,1.1-0.9,1.9-0.7c1,0.3,1.7-0.3,2.4-0.8C67.8,106.4,68.2,106.3,68.6,106.5z"/>
		<circle class="st0" cx="77.2" cy="142.1" r="2.7"/>
		<circle class="st0" cx="64.6" cy="142.1" r="2.7"/>
		<path class="st0" d="M89.6,117.1H52.2c-0.3,0-0.5,0.2-0.5,0.5v4.5c0,0.3,0.2,0.5,0.5,0.5h1.2c0.3,0,0.6,0.2,0.7,0.5l4.9,12.6
			c0.2,0.5,0.6,0.8,1.2,0.8h21.3c0.5,0,1-0.3,1.2-0.8l4.9-12.6c0.1-0.3,0.4-0.5,0.7-0.5h1.2c0.3,0,0.5-0.2,0.5-0.5v-4.5
			C90.1,117.3,89.8,117.1,89.6,117.1z M63.9,132.5c0,0.6-0.5,1.1-1.1,1.1s-1.1-0.5-1.1-1.1V124c0-0.6,0.5-1.1,1.1-1.1
			s1.1,0.5,1.1,1.1V132.5z M69.3,132.5c0,0.6-0.5,1.1-1.1,1.1s-1.1-0.5-1.1-1.1V124c0-0.6,0.5-1.1,1.1-1.1s1.1,0.5,1.1,1.1V132.5z
			 M74.6,132.5c0,0.6-0.5,1.1-1.1,1.1s-1.1-0.5-1.1-1.1V124c0-0.6,0.5-1.1,1.1-1.1s1.1,0.5,1.1,1.1V132.5z M80,132.5
			c0,0.6-0.5,1.1-1.1,1.1s-1.1-0.5-1.1-1.1V124c0-0.6,0.5-1.1,1.1-1.1s1.1,0.5,1.1,1.1V132.5z"/>
<path class="st1" d="M152.2,123.7l-12.3-15.1h-24.7l-12.3,15.1l24.7,21.8L152.2,123.7z M146,124.1v0.2L133,135l3.9-10.7L146,124.1z
	 M137.9,112l-1.6,10.2l-6.5-3.2L137.9,112z M109,124.2V124l9.1,0.3L122,135L109,124.2z M118.6,122.2L117,112l8.1,7L118.6,122.2z"/>
</svg>
